_includes/icons/color-map-marker.svg

<svg fill="#666" height="50" viewBox="0 0 48 48" width="50" xmlns="http://www.w3.org/2000/svg"><path d="m30 10-12-4-12 4v32l12-4 12 4 12-4v-32z" fill="#ffecb3"/><path d="m18 6v32l12 4v-32z" fill="#ffe082"/><path d="m30 15c-3.867187 0-7 3.292969-7 7.351563 0 4.058593 7 13.648437 7 13.648437s7-9.59375 7-13.648437c0-4.058594-3.132812-7.351563-7-7.351563z" fill="#f44336"/><path d="m33 22c0 1.65625-1.34375 3-3 3s-3-1.34375-3-3 1.34375-3 3-3 3 1.34375 3 3z" fill="#ffebee"/></svg>

<svg xmlns="http://www.w3.org/2000/svg" viewBox="0 0 48 48" width="50" height="50" fill="#666"><path d="M 30 10 L 18 6 L 6 10 L 6 42 L 18 38 L 30 42 L 42 38 L 42 6 Z" fill="#ffecb3"/><path d="M 18 6 L 18 38 L 30 42 L 30 10 Z" fill="#ffe082"/><path d="M 30 15 C 26.132813 15 23 18.292969 23 22.351563 C 23 26.410156 30 36 30 36 C 30 36 37 26.40625 37 22.351563 C 37 18.292969 33.867188 15 30 15 Z" fill="#f44336"/><path d="M 33 22 C 33 23.65625 31.65625 25 30 25 C 28.34375 25 27 23.65625 27 22 C 27 20.34375 28.34375 19 30 19 C 31.65625 19 33 20.34375 33 22 Z" fill="#ffebee"/></svg>
